speaky-school/img/figures1.svg

<svg width="499" height="346" fill="none" xmlns="http://www.w3.org/2000/svg"><path fill-rule="evenodd" clip-rule="evenodd" d="M284 276a59.24 59.24 0 0 0 35 35 59.24 59.24 0 0 0-35 35 59.24 59.24 0 0 0-35-35 59.24 59.24 0 0 0 35-35zm105 35a59.24 59.24 0 0 0-35 35 59.24 59.24 0 0 0-35-35 59.24 59.24 0 0 0 35-35 59.24 59.24 0 0 0 35 35zm0 0a59.24 59.24 0 0 0 35-35 59.24 59.24 0 0 0 35 35 59.24 59.24 0 0 0-35 35 59.24 59.24 0 0 0-35-35z" fill="#236967"/><rect x="299" y="62" width="200" height="200" rx="50" fill="#FE7167"/><path fill-rule="evenodd" clip-rule="evenodd" d="M195 238H5a2 2 0 1 0 0 4h190a2 2 0 1 0 0-4zM5 235a5 5 0 0 0 0 10h190a5 5 0 0 0 0-10H5zm190 43H5a2 2 0 1 0 0 4h190a2 2 0 1 0 0-4zM5 275a5 5 0 0 0 0 10h190a5 5 0 0 0 0-10H5zm0-17h190a2 2 0 1 1 0 4H5a2 2 0 1 1 0-4zm-5 2a5 5 0 0 1 5-5h190a5 5 0 0 1 0 10H5a5 5 0 0 1-5-5z" fill="#FFECA0"/><path fill-rule="evenodd" clip-rule="evenodd" d="M125 30c0 16.569-13.431 30-30 30-16.569 0-30-13.431-30-30C65 13.431 78.431 0 95 0c16.569 0 30 13.431 30 30zm62 0c0 16.569-13.431 30-30 30-16.569 0-30-13.431-30-30 0-16.569 13.431-30 30-30 16.569 0 30 13.431 30 30zm-30 92c16.569 0 30-13.431 30-30 0-16.569-13.431-30-30-30-16.569 0-30 13.431-30 30 0 16.569 13.431 30 30 30zm30 32c0 16.569-13.431 30-30 30-16.569 0-30-13.431-30-30 0-16.569 13.431-30 30-30 16.569 0 30 13.431 30 30zm-92-32c16.569 0 30-13.431 30-30 0-16.569-13.431-30-30-30-16.569 0-30 13.431-30 30 0 16.569 13.431 30 30 30zm30 32c0 16.569-13.431 30-30 30-16.569 0-30-13.431-30-30 0-16.569 13.431-30 30-30 16.569 0 30 13.431 30 30zm94-94c16.569 0 30-13.431 30-30 0-16.569-13.431-30-30-30-16.569 0-30 13.431-30 30 0 16.569 13.431 30 30 30zm30 32c0 16.569-13.431 30-30 30-16.569 0-30-13.431-30-30 0-16.569 13.431-30 30-30 16.569 0 30 13.431 30 30zm-30 92c16.569 0 30-13.431 30-30 0-16.569-13.431-30-30-30-16.569 0-30 13.431-30 30 0 16.569 13.431 30 30 30z" fill="#FFCC1A"/></svg>

<svg width="499" height="346" viewBox="0 0 499 346" fill="none" xmlns="http://www.w3.org/2000/svg">
<path fill-rule="evenodd" clip-rule="evenodd" d="M284 276C290 292.215 302.785 305 319 311C302.785 317 290 329.785 284 346C278 329.785 265.215 317 249 311C265.215 305 278 292.215 284 276ZM389 311C372.785 317 360 329.785 354 346C348 329.785 335.215 317 319 311C335.215 305 348 292.215 354 276C360 292.215 372.785 305 389 311ZM389 311C405.215 305 418 292.215 424 276C430 292.215 442.785 305 459 311C442.785 317 430 329.785 424 346C418 329.785 405.215 317 389 311Z" fill="#236967"/>
<rect x="299" y="62" width="200" height="200" rx="50" fill="#FE7167"/>
<path fill-rule="evenodd" clip-rule="evenodd" d="M195 238H5C3.89543 238 3 238.895 3 240C3 241.105 3.89543 242 5 242H195C196.105 242 197 241.105 197 240C197 238.895 196.105 238 195 238ZM5 235C2.23858 235 0 237.239 0 240C0 242.761 2.23857 245 5 245H195C197.761 245 200 242.761 200 240C200 237.239 197.761 235 195 235H5ZM195 278H5C3.89543 278 3 278.895 3 280C3 281.105 3.89543 282 5 282H195C196.105 282 197 281.105 197 280C197 278.895 196.105 278 195 278ZM5 275C2.23858 275 0 277.239 0 280C0 282.761 2.23857 285 5 285H195C197.761 285 200 282.761 200 280C200 277.239 197.761 275 195 275H5ZM5 258H195C196.105 258 197 258.895 197 260C197 261.105 196.105 262 195 262H5C3.89543 262 3 261.105 3 260C3 258.895 3.89543 258 5 258ZM0 260C0 257.239 2.23858 255 5 255H195C197.761 255 200 257.239 200 260C200 262.761 197.761 265 195 265H5C2.23857 265 0 262.761 0 260Z" fill="#FFECA0"/>
<path fill-rule="evenodd" clip-rule="evenodd" d="M125 30C125 46.5685 111.569 60 95 60C78.4315 60 65 46.5685 65 30C65 13.4315 78.4315 0 95 0C111.569 0 125 13.4315 125 30ZM187 30C187 46.5685 173.569 60 157 60C140.431 60 127 46.5685 127 30C127 13.4315 140.431 0 157 0C173.569 0 187 13.4315 187 30ZM157 122C173.569 122 187 108.569 187 92C187 75.4315 173.569 62 157 62C140.431 62 127 75.4315 127 92C127 108.569 140.431 122 157 122ZM187 154C187 170.569 173.569 184 157 184C140.431 184 127 170.569 127 154C127 137.431 140.431 124 157 124C173.569 124 187 137.431 187 154ZM95 122C111.569 122 125 108.569 125 92C125 75.4315 111.569 62 95 62C78.4315 62 65 75.4315 65 92C65 108.569 78.4315 122 95 122ZM125 154C125 170.569 111.569 184 95 184C78.4315 184 65 170.569 65 154C65 137.431 78.4315 124 95 124C111.569 124 125 137.431 125 154ZM219 60C235.569 60 249 46.5685 249 30C249 13.4315 235.569 0 219 0C202.431 0 189 13.4315 189 30C189 46.5685 202.431 60 219 60ZM249 92C249 108.569 235.569 122 219 122C202.431 122 189 108.569 189 92C189 75.4315 202.431 62 219 62C235.569 62 249 75.4315 249 92ZM219 184C235.569 184 249 170.569 249 154C249 137.431 235.569 124 219 124C202.431 124 189 137.431 189 154C189 170.569 202.431 184 219 184Z" fill="#FFCC1A"/>
</svg>
